X: 1
T: Brendan McMahon's
M: 4/4
L: 1/8
R: reel
K: Emin
|:B3 A BAGB | A2 FA DAFA | B3 A BAGB | ABde fded |
B3 A BAGB | A2 FA DAFA | G3 E F2 dB | AFDE FEE2 :|
|:G3 F GBdB | A2 FA DAFA | G3 F GBdB | AFDE FEEF |
G3 F GBdB | A2 FA DAFA | G3 E F2 dB | AFDE FEE2 :|
